X:1
T:Song o the Sons of Liberty
M:4/4
L:1/8
K:C
 G2 GG E2F-G| A2 A2 G4| A2 Bc B2c-d| e2- d2 c4| G2 GG E2F-G| A2 A2 G4|\
 A2 Bc B2c-d| e2- d2 c2 z c| e2f-e d2c-B| c2 d2 B2- G2| A2 Bc B2c-d|\
c-d-e-f d4| G2 GG E2F-G| A2 A2 G2 z G| AB c2B-c d2| e2- d2 c4|
